;part repeat
; generated by PrusaSlicer 2.2.0+ on 2020-05-10 at 01:47:09 UTC

; Pavlo Havrylyuk profile

; external perimeters extrusion width = 1.10mm
; perimeters extrusion width = 1.10mm
; infill extrusion width = 1.10mm
; solid infill extrusion width = 1.10mm
; top infill extrusion width = 1.00mm
; first layer extrusion width = 1.10mm

M73 P0 R61
M201 X9000 Y9000 Z500 E10000 ; sets maximum accelerations, mm/sec^2
M203 X500 Y500 Z12 E120 ; sets maximum feedrates, mm/sec
M204 P1500 R1500 T1500 ; sets acceleration (P, T) and retract acceleration (R), mm/sec^2
M205 X5.00 Y5.00 Z0.20 E2.50 ; sets the jerk limits, mm/sec
M205 S0 T0 ; sets the minimum extruding and travel feed rate, mm/sec
M107
;start Start G-code repeat

M83  ; extruder relative mode
M104 S235 ; set extruder temp
M140 S70 ; set bed temp
M190 S70 ; wait for bed temp
M109 S235 ; wait for extruder temp

M280 P0 S160 ; reset alarm on BLTouch
G4 P100 ; delay for BLTouch
G28 ; HOME
G29 ; BED LEVEL
;My custom gcode
M420 S1 ;ENABLE BED LEVELING
G1 Z1 ; lift head
G1 Y5 F600
G1 Y10 F600
G1 Y60 F600.0 ; intro line
G1 Y93.3333 F600.0 ; intro line
M420 S1 ;ENABLE BED LEVELING

;end Start G-code repeat
G21 ; set units to millimeters
G90 ; use absolute coordinates
M83 ; use relative distances for extrusion
M900 K30 ; Filament gcode
;BEFORE_LAYER_CHANGE
G1 E-0.80000 F2100.00000
M73 P0 R61
G1 Z0.600 F15000.000
;AFTER_LAYER_CHANGE
;0.4
M420 S1 ;ENABLE BED LEVELING
; printing object covid19_headband_rc3.stl id:0 copy 0
G1 X183.245 Y99.254
G1 Z0.400
G1 E0.80000 F2100.00000
M204 S1000
G1 F600.000
G1 X182.967 Y99.101 E0.05143
G1 X182.684 Y98.859 E0.06030
G1 X182.530 Y98.689 E0.03720
G1 X182.364 Y98.431 E0.04968
G1 X182.254 Y98.174 E0.04521
G1 X181.377 Y95.686 E0.42717
G1 X180.426 Y93.255 E0.42272
G1 X179.391 Y90.857 E0.42272
G1 X178.275 Y88.497 E0.42272
G1 X177.079 Y86.176 E0.42272
G1 X175.804 Y83.898 E0.42272
G1 X174.452 Y81.665 E0.42272
G1 X173.023 Y79.479 E0.42272
G1 X171.521 Y77.344 E0.42272
G1 X169.947 Y75.261 E0.42272
G1 X168.302 Y73.234 E0.42272
G1 X166.588 Y71.264 E0.42272
G1 X164.808 Y69.354 E0.42272
G1 X164.069 Y68.614 E0.16945
G1 X162.963 Y67.506 E0.25327
G1 X161.057 Y65.723 E0.42272
G1 X159.090 Y64.006 E0.42272
G1 X157.065 Y62.357 E0.42272
G1 X154.986 Y60.779 E0.42272
G1 X152.853 Y59.273 E0.42272
G1 X150.670 Y57.841 E0.42272
G1 X148.439 Y56.485 E0.42272
G1 X146.163 Y55.206 E0.42272
G1 X143.844 Y54.005 E0.42280
G1 X141.111 Y52.701 E0.49031
G1 X138.339 Y51.481 E0.49039
G1 X135.530 Y50.347 E0.49039
G1 X132.688 Y49.300 E0.49039
G1 X129.815 Y48.340 E0.49039
G1 X126.915 Y47.469 E0.49039
G1 X123.988 Y46.688 E0.49039
G1 X121.040 Y45.996 E0.49039
G1 X118.071 Y45.396 E0.49039
G1 X115.085 Y44.887 E0.49039
G1 X112.085 Y44.470 E0.49039
G1 X109.074 Y44.145 E0.49039
G1 X106.054 Y43.913 E0.49039
G1 X103.028 Y43.773 E0.49039
G1 X100.000 Y43.727 E0.49039
G1 X96.972 Y43.773 E0.49039
G1 X93.946 Y43.913 E0.49039
G1 X90.926 Y44.145 E0.49039
G1 X87.915 Y44.470 E0.49039
G1 X84.915 Y44.887 E0.49039
G1 X81.929 Y45.396 E0.49039
G1 X78.961 Y45.996 E0.49039
G1 X76.012 Y46.688 E0.49039
G1 X73.085 Y47.469 E0.49039
G1 X70.185 Y48.340 E0.49039
G1 X67.312 Y49.300 E0.49039
G1 X64.470 Y50.347 E0.49039
G1 X61.661 Y51.481 E0.49039
G1 X58.889 Y52.701 E0.49039
G1 X56.156 Y54.005 E0.49031
G1 X53.837 Y55.206 E0.42280
G1 X51.561 Y56.485 E0.42272
G1 X49.330 Y57.841 E0.42272
G1 X47.147 Y59.273 E0.42272
G1 X45.014 Y60.779 E0.42272
G1 X42.935 Y62.357 E0.42272
G1 X40.910 Y64.006 E0.42272
G1 X38.943 Y65.723 E0.42272
G1 X37.037 Y67.506 E0.42272
G1 X35.192 Y69.354 E0.42272
G1 X33.412 Y71.264 E0.42272
G1 X31.698 Y73.234 E0.42272
G1 X30.053 Y75.261 E0.42272
G1 X28.479 Y77.344 E0.42272
G1 X26.977 Y79.479 E0.42272
G1 X25.548 Y81.665 E0.42272
G1 X24.196 Y83.898 E0.42272
G1 X22.921 Y86.176 E0.42272
G1 X21.725 Y88.497 E0.42272
G1 X20.609 Y90.857 E0.42272
G1 X19.574 Y93.255 E0.42272
G1 X18.623 Y95.686 E0.42272
G1 X17.746 Y98.174 E0.42717
G1 X17.636 Y98.431 E0.04521
G1 X17.470 Y98.689 E0.04968
G1 X17.264 Y98.916 E0.04968
G1 X17.024 Y99.107 E0.04968
G1 X16.755 Y99.254 E0.04968
G1 X16.465 Y99.356 E0.04968
G1 X16.163 Y99.408 E0.04968
G1 X15.856 Y99.410 E0.04968
G1 X15.553 Y99.360 E0.04968
G1 X15.262 Y99.262 E0.04968
G1 X14.992 Y99.117 E0.04968
G1 X14.749 Y98.929 E0.04968
G1 X14.541 Y98.704 E0.04968
G1 X14.373 Y98.447 E0.04968
G1 X14.249 Y98.167 E0.04968
G1 X14.174 Y97.869 E0.04968
G1 X14.150 Y97.586 E0.04597
G1 X14.150 Y89.872 E1.24899
G1 X14.198 Y87.008 E0.46379
G1 X14.342 Y84.142 E0.46453
G1 X14.581 Y81.283 E0.46453
G1 X14.916 Y78.434 E0.46453
G1 X15.346 Y75.597 E0.46453
G1 X15.870 Y72.777 E0.46453
G1 X16.489 Y69.975 E0.46453
G1 X17.200 Y67.195 E0.46453
G1 X18.004 Y64.441 E0.46453
G1 X18.900 Y61.716 E0.46453
G1 X19.886 Y59.021 E0.46453
G1 X20.962 Y56.362 E0.46453
G1 X22.126 Y53.739 E0.46453
G1 X23.377 Y51.157 E0.46453
G1 X24.714 Y48.619 E0.46453
G1 X26.134 Y46.126 E0.46453
G1 X27.638 Y43.682 E0.46453
G1 X29.222 Y41.290 E0.46453
G1 X30.885 Y38.952 E0.46453
G1 X32.625 Y36.671 E0.46453
G1 X34.440 Y34.449 E0.46453
G1 X36.329 Y32.290 E0.46453
G1 X38.289 Y30.194 E0.46453
G1 X40.318 Y28.166 E0.46453
G1 X42.413 Y26.206 E0.46453
G1 X44.573 Y24.317 E0.46453
G1 X46.794 Y22.502 E0.46453
G1 X49.075 Y20.761 E0.46453
G1 X51.413 Y19.098 E0.46453
G1 X52.851 Y18.147 E0.27907
G1 X53.806 Y17.514 E0.18546
G1 X56.249 Y16.011 E0.46453
G1 X58.742 Y14.590 E0.46453
G1 X61.281 Y13.254 E0.46453
G1 X63.863 Y12.003 E0.46453
G1 X66.485 Y10.839 E0.46453
G1 X69.145 Y9.763 E0.46453
G1 X71.839 Y8.777 E0.46453
G1 X74.565 Y7.881 E0.46453
G1 X77.319 Y7.077 E0.46453
G1 X80.098 Y6.365 E0.46453
G1 X82.900 Y5.747 E0.46453
G1 X85.721 Y5.222 E0.46453
G1 X88.557 Y4.793 E0.46453
G1 X91.407 Y4.458 E0.46453
G1 X94.266 Y4.218 E0.46453
G1 X97.131 Y4.075 E0.46453
G1 X100.000 Y4.027 E0.46453
G1 X102.869 Y4.075 E0.46453
G1 X105.734 Y4.218 E0.46453
G1 X108.593 Y4.458 E0.46453
G1 X111.443 Y4.793 E0.46453
G1 X113.147 Y5.051 E0.27907
G1 X114.279 Y5.222 E0.18546
G1 X117.100 Y5.747 E0.46453
G1 X119.902 Y6.365 E0.46453
G1 X122.681 Y7.077 E0.46453
G1 X125.435 Y7.881 E0.46453
G1 X128.161 Y8.777 E0.46453
G1 X130.855 Y9.763 E0.46453
G1 X133.515 Y10.839 E0.46453
G1 X136.137 Y12.003 E0.46453
G1 X138.719 Y13.254 E0.46453
G1 X141.258 Y14.590 E0.46453
G1 X143.751 Y16.011 E0.46453
G1 X146.194 Y17.514 E0.46453
G1 X148.587 Y19.098 E0.46453
G1 X150.925 Y20.761 E0.46453
G1 X153.206 Y22.502 E0.46453
G1 X155.427 Y24.317 E0.46453
G1 X157.587 Y26.206 E0.46453
G1 X159.682 Y28.166 E0.46453
G1 X161.711 Y30.194 E0.46453
G1 X163.671 Y32.290 E0.46453
G1 X165.560 Y34.449 E0.46453
G1 X167.375 Y36.671 E0.46453
G1 X169.115 Y38.952 E0.46453
G1 X170.778 Y41.290 E0.46453
G1 X172.362 Y43.682 E0.46453
G1 X173.866 Y46.126 E0.46453
G1 X174.719 Y47.623 E0.27907
G1 X175.286 Y48.619 E0.18546
G1 X176.623 Y51.157 E0.46453
G1 X177.874 Y53.739 E0.46453
G1 X179.038 Y56.362 E0.46453
G1 X180.114 Y59.021 E0.46453
G1 X181.100 Y61.716 E0.46453
G1 X181.996 Y64.441 E0.46453
G1 X182.800 Y67.195 E0.46453
G1 X183.511 Y69.975 E0.46453
G1 X184.130 Y72.777 E0.46453
G1 X184.654 Y75.597 E0.46453
G1 X185.084 Y78.434 E0.46453
G1 X185.419 Y81.283 E0.46453
G1 X185.658 Y84.142 E0.46453
G1 X185.802 Y87.008 E0.46453
G1 X185.850 Y89.872 E0.46379
G1 X185.850 Y97.586 E1.24899
G1 X185.826 Y97.880 E0.04772
G1 X185.720 Y98.237 E0.06030
G1 X185.627 Y98.447 E0.03721
G1 X185.459 Y98.704 E0.04968
G1 X185.243 Y98.937 E0.05143
G1 X184.940 Y99.153 E0.06030
G1 X184.738 Y99.262 E0.03721
G1 X184.437 Y99.364 E0.05143
G1 X184.067 Y99.409 E0.06030
G1 X183.837 Y99.408 E0.03720
G1 X183.535 Y99.356 E0.04968
G1 X183.359 Y99.294 E0.03025
G1 X182.988 Y99.441 F15000.000
G1 F12000.000
G1 X182.967 Y99.101 E-0.07256
G1 X182.684 Y98.859 E-0.06192
G1 X182.530 Y98.689 E-0.03820
G1 X182.364 Y98.431 E-0.05101
G1 X182.254 Y98.174 E-0.04642
G1 X181.377 Y95.686 E-0.43863
G1 X181.265 Y95.399 E-0.05126
G1 E-0.04000 F2100.00000
G1 Z1.000 F15000.000
G1 X37.890 Y27.725
G1 Z0.400
G1 E0.80000 F2100.00000
G1 F600.000
G1 X36.831 Y28.784 E0.24255
G1 X34.825 Y30.929 E0.47551
G1 X32.891 Y33.140 E0.47551
G1 X31.942 Y34.301 E0.24282
G1 X31.572 Y33.937 E0.08405
G1 X31.296 Y33.744 E0.05450
G1 X31.973 Y33.059 E0.15597
G1 X34.142 Y30.995 E0.48474
G1 X36.374 Y28.999 E0.48478
G1 X37.798 Y27.802 E0.30122
G1 F12000.000
G1 X36.831 Y28.784 E-0.22918
G1 X34.825 Y30.929 E-0.48826
G1 X34.656 Y31.122 E-0.04256
G1 E-0.04000 F2100.00000
G1 Z1.000 F15000.000
G1 X29.522 Y34.097
G1 Z0.400
G1 E0.80000 F2100.00000
G1 F600.000
G1 X31.263 Y32.335 E0.40097
G1 X33.455 Y30.250 E0.48981
G1 X35.709 Y28.233 E0.48984
G1 X38.026 Y26.286 E0.48988
G1 X38.969 Y25.541 E0.19471
G1 X40.400 Y24.412 E0.29503
G1 X42.832 Y22.612 E0.48986
G1 X45.318 Y20.888 E0.48983
G1 X47.856 Y19.241 E0.48983
G1 X50.444 Y17.673 E0.48998
G1 X53.077 Y16.186 E0.48958
G1 X55.757 Y14.780 E0.48993
G1 X58.478 Y13.458 E0.48983
G1 X60.080 Y12.740 E0.28435
G1 X58.255 Y13.701 E0.33406
G1 X55.732 Y15.138 E0.47002
G1 X53.260 Y16.659 E0.47002
G1 X50.839 Y18.262 E0.47002
M73 P1 R60
G1 X48.474 Y19.945 E0.47002
G1 X46.166 Y21.706 E0.47002
G1 X43.918 Y23.542 E0.47002
G1 X41.733 Y25.453 E0.47002
G1 X39.613 Y27.436 E0.47002
G1 X37.560 Y29.489 E0.47002
G1 X35.577 Y31.609 E0.47002
G1 X33.666 Y33.795 E0.47002
G1 X31.813 Y36.063 E0.47415
G1 X31.776 Y35.914 E0.02486
G1 X31.549 Y35.451 E0.08338
G1 X31.267 Y35.059 E0.07832
G1 X30.922 Y34.720 E0.07831
G1 X30.525 Y34.443 E0.07832
G1 X30.177 Y34.279 E0.06235
G1 X29.642 Y34.109 E0.09088
G1 F12000.000
G1 X31.263 Y32.335 E-0.39954
G1 X32.834 Y30.840 E-0.36046
G1 E-0.04000 F2100.00000
G1 Z1.000 F15000.000
G1 X162.110 Y27.725
G1 Z0.400
G1 E0.80000 F2100.00000
G1 F600.000
G1 X163.626 Y28.999 E0.32065
G1 X165.858 Y30.995 E0.48478
G1 X168.027 Y33.059 E0.48474
G1 X168.704 Y33.744 E0.15597
G1 X168.428 Y33.937 E0.05449
G1 X168.058 Y34.301 E0.08405
G1 X167.109 Y33.140 E0.24282
G1 X165.175 Y30.929 E0.47551
G1 X163.169 Y28.784 E0.47551
G1 X162.195 Y27.810 E0.22312
G1 F12000.000
G1 X163.626 Y28.999 E-0.30937
G1 X165.646 Y30.806 E-0.45063
G1 E-0.04000 F2100.00000
G1 Z1.000 F15000.000
G1 X168.171 Y36.042
G1 Z0.400
G1 E0.80000 F2100.00000
G1 F600.000
G1 X166.334 Y33.795 E0.47002
G1 X164.423 Y31.609 E0.47002
G1 X162.440 Y29.489 E0.47002
G1 X160.387 Y27.436 E0.47002
G1 X158.267 Y25.453 E0.47002
G1 X156.082 Y23.542 E0.47002
G1 X153.834 Y21.706 E0.47002
G1 X151.526 Y19.945 E0.47002
G1 X149.161 Y18.262 E0.47002
G1 X146.740 Y16.659 E0.47002
G1 X144.268 Y15.138 E0.47002
G1 X141.745 Y13.701 E0.47002
G1 X139.920 Y12.740 E0.33406
G1 X141.522 Y13.458 E0.28435
G1 X144.243 Y14.780 E0.48983
G1 X146.923 Y16.186 E0.48993
G1 X149.556 Y17.673 E0.48958
G1 X152.144 Y19.241 E0.48998
G1 X154.682 Y20.888 E0.48983
G1 X157.168 Y22.612 E0.48983
G1 X159.600 Y24.412 E0.48986
G1 X161.974 Y26.286 E0.48975
G1 X164.291 Y28.233 E0.48988
G1 X166.545 Y30.250 E0.48984
G1 X168.737 Y32.335 E0.48981
G1 X170.478 Y34.097 E0.40097
G1 X170.378 Y34.107 E0.01615
G1 X169.912 Y34.237 E0.07832
G1 X169.475 Y34.443 E0.07832
G1 X169.078 Y34.720 E0.07832
G1 X168.733 Y35.059 E0.07832
G1 X168.451 Y35.451 E0.07832
G1 X168.238 Y35.886 E0.07831
G1 X168.213 Y35.970 E0.01427
G1 F12000.000
G1 X166.334 Y33.795 E-0.47792
G1 X165.217 Y32.517 E-0.28208
G1 E-0.04000 F2100.00000
G1 Z1.000 F15000.000
G1 X185.636 Y99.903
G1 Z0.400
G1 E0.80000 F2100.00000
G1 F600.000
G1 X185.636 Y108.566 E1.40266
G1 X185.205 Y106.335 E0.36784
G1 X184.609 Y103.736 E0.43176
G1 X183.923 Y101.159 E0.43176
G1 X183.696 Y100.413 E0.12633
G1 X184.126 Y100.424 E0.06974
G1 X184.663 Y100.358 E0.08762
G1 X185.143 Y100.195 E0.08196
G1 X185.538 Y99.972 E0.07348
G1 F12000.000
G1 X185.590 Y104.544 E-0.76000
G1 E-0.04000 F2100.00000
G1 Z1.000 F15000.000
G1 X16.304 Y100.413
G1 Z0.400
G1 E0.80000 F2100.00000
G1 F600.000
G1 X16.077 Y101.159 E0.12633
G1 X15.391 Y103.736 E0.43176
G1 X14.795 Y106.335 E0.43176
G1 X14.364 Y108.566 E0.36784
G1 X14.364 Y99.913 E1.40095
G1 X14.438 Y99.971 E0.01515
G1 X14.857 Y100.195 E0.07698
G1 X15.307 Y100.348 E0.07698
G1 X15.777 Y100.424 E0.07698
G1 X16.185 Y100.422 E0.06610
G1 F12000.000
G1 X16.077 Y101.159 E-0.12386
G1 X15.391 Y103.736 E-0.44334
G1 X15.132 Y104.867 E-0.19280
G1 E-0.04000 F2100.00000
G1 Z1.000 F15000.000
G1 X71.098 Y7.518
G1 Z0.400
G1 E0.80000 F2100.00000
G1 F600.000
G1 X74.702 Y6.509 E0.60600
G1 X77.623 Y5.785 E0.48725
G1 X80.565 Y5.150 E0.48725
G1 X83.525 Y4.605 E0.48731
G1 X86.499 Y4.150 E0.48709
G1 X89.487 Y3.786 E0.48734
G1 X92.483 Y3.512 E0.48725
G1 X95.487 Y3.329 E0.48725
G1 X98.495 Y3.238 E0.48725
G1 X101.505 Y3.238 E0.48725
G1 X104.513 Y3.329 E0.48729
G1 X105.699 Y3.401 E0.19245
G1 X107.516 Y3.512 E0.29473
G1 X110.513 Y3.786 E0.48727
G1 X113.501 Y4.150 E0.48725
G1 X116.475 Y4.605 E0.48725
G1 X119.436 Y5.151 E0.48738
G1 X122.376 Y5.785 E0.48703
G1 X125.298 Y6.509 E0.48734
G1 X128.902 Y7.518 E0.60600
G1 X128.914 Y3.493 E0.65176
G1 X128.943 Y3.384 E0.01828
G1 X129.056 Y3.189 E0.03643
G1 X129.228 Y3.044 E0.03643
G1 X129.429 Y2.970 E0.03474
G1 X129.599 Y2.961 E0.02758
G1 X129.774 Y2.996 E0.02875
G1 X129.968 Y3.109 E0.03643
G1 X130.113 Y3.281 E0.03643
G1 X130.190 Y3.493 E0.03643
G1 X130.202 Y3.629 E0.02219
G1 X130.202 Y7.931 E0.69653
G1 X133.475 Y9.049 E0.56003
G1 X135.196 Y9.694 E0.29753
G1 X136.335 Y10.125 E0.19722
G1 X139.162 Y11.289 E0.49498
G1 X141.951 Y12.539 E0.49489
G1 X144.701 Y13.875 E0.49489
G1 X147.408 Y15.295 E0.49493
G1 X150.069 Y16.797 E0.49480
G1 X152.683 Y18.382 E0.49494
G1 X155.247 Y20.045 E0.49489
G1 X157.759 Y21.788 E0.49489
G1 X160.216 Y23.606 E0.49490
G1 X161.659 Y24.745 E0.29760
G1 X162.615 Y25.500 E0.19726
G1 X164.955 Y27.466 E0.49491
G1 X167.233 Y29.504 E0.49490
G1 X168.116 Y30.344 E0.19727
G1 X169.448 Y31.611 E0.29761
G1 X171.596 Y33.785 E0.49489
G1 X173.676 Y36.025 E0.49492
G1 X174.478 Y36.942 E0.19726
G1 X175.686 Y38.327 E0.29759
G1 X177.625 Y40.691 E0.49491
G1 X179.489 Y43.113 E0.49494
G1 X180.203 Y44.100 E0.19725
G1 X181.278 Y45.591 E0.29757
G1 X182.990 Y48.124 E0.49492
G1 X184.623 Y50.708 E0.49496
G1 X186.175 Y53.340 E0.49478
G1 X187.797 Y56.296 E0.54589
G1 X193.022 Y56.572 E0.84708
G1 X193.265 Y56.626 E0.04032
G1 X193.453 Y56.749 E0.03643
G1 X193.529 Y56.833 E0.01829
G1 X193.627 Y57.024 E0.03474
G1 X193.656 Y57.192 E0.02758
G1 X193.643 Y57.369 E0.02876
G1 X193.608 Y57.476 E0.01829
G1 X193.491 Y57.656 E0.03473
G1 X193.361 Y57.765 E0.02757
G1 X193.200 Y57.842 E0.02876
G1 X193.090 Y57.866 E0.01828
G1 X188.499 Y57.635 E0.74423
G1 X189.967 Y60.706 E0.55113
G1 X190.977 Y62.959 E0.39976
G1 X191.711 Y64.712 E0.30766
G1 X190.957 Y64.984 E0.12980
G1 X190.013 Y62.748 E0.39292
G1 X188.781 Y60.061 E0.47862
G1 X187.469 Y57.412 E0.47863
G1 X186.078 Y54.803 E0.47863
G1 X184.610 Y52.238 E0.47863
G1 X183.065 Y49.718 E0.47863
G1 X181.445 Y47.245 E0.47863
G1 X179.751 Y44.822 E0.47863
G1 X177.985 Y42.451 E0.47863
G1 X176.149 Y40.135 E0.47863
G1 X174.244 Y37.874 E0.47863
G1 X172.259 Y35.658 E0.48172
G1 X172.043 Y35.460 E0.04744
G1 X171.780 Y35.291 E0.05054
G1 X171.493 Y35.168 E0.05054
G1 X171.190 Y35.096 E0.05054
G1 X170.878 Y35.075 E0.05054
G1 X170.568 Y35.107 E0.05054
G1 X170.267 Y35.191 E0.05054
G1 X169.985 Y35.324 E0.05054
G1 X169.729 Y35.502 E0.05054
G1 X169.506 Y35.721 E0.05054
G1 X169.324 Y35.975 E0.05054
G1 X169.186 Y36.255 E0.05054
G1 X169.098 Y36.554 E0.05054
G1 X169.061 Y36.864 E0.05054
G1 X169.077 Y37.176 E0.05054
G1 X169.145 Y37.481 E0.05054
G1 X169.263 Y37.770 E0.05054
G1 X169.414 Y38.011 E0.04605
G1 X171.056 Y40.286 E0.45437
G1 X172.610 Y42.590 E0.44989
G1 X174.089 Y44.943 E0.44989
G1 X175.491 Y47.341 E0.44989
G1 X176.816 Y49.784 E0.44989
G1 X178.062 Y52.267 E0.44989
G1 X179.228 Y54.790 E0.44989
G1 X180.313 Y57.348 E0.44989
G1 X181.314 Y59.940 E0.44989
G1 X182.232 Y62.563 E0.44989
G1 X183.066 Y65.213 E0.44989
G1 X183.514 Y66.817 E0.26960
G1 X183.814 Y67.889 E0.18029
G1 X184.476 Y70.588 E0.44989
G1 X185.051 Y73.307 E0.44989
G1 X185.538 Y76.042 E0.44989
G1 X185.938 Y78.792 E0.44989
G1 X186.249 Y81.553 E0.44989
G1 X186.472 Y84.323 E0.44989
G1 X186.605 Y87.098 E0.44989
G1 X186.650 Y89.881 E0.45061
G1 X186.650 Y140.527 E8.19998
G1 X185.850 Y140.527 E0.12953
G1 X185.850 Y122.216 E2.96462
G1 X185.804 Y119.590 E0.42529
G1 X185.668 Y116.962 E0.42606
