; generated by PrusaSlicer 2.2.0+ on 2020-05-22 at 06:59:40 UTC

; Pavlo Havrylyuk profile

; external perimeters extrusion width = 1.10mm
; perimeters extrusion width = 1.10mm
; infill extrusion width = 1.10mm
; solid infill extrusion width = 1.10mm
; top infill extrusion width = 1.00mm
; first layer extrusion width = 1.10mm

M73 P0 R65
M201 X9000 Y9000 Z500 E10000 ; sets maximum accelerations, mm/sec^2
M203 X500 Y500 Z12 E120 ; sets maximum feedrates, mm/sec
M204 P1500 R1500 T1500 ; sets acceleration (P, T) and retract acceleration (R), mm/sec^2
M205 X5.00 Y5.00 Z0.20 E2.50 ; sets the jerk limits, mm/sec
M205 S0 T0 ; sets the minimum extruding and travel feed rate, mm/sec
M107
;start Start G-code repeat

M83  ; extruder relative mode
M104 S240 ; set extruder temp
M140 S80 ; set bed temp
M190 S80 ; wait for bed temp
M109 S240 ; wait for extruder temp

M280 P0 S160 ; reset alarm on BLTouch
G4 P100 ; delay for BLTouch
G28 ; HOME
G29 ; BED LEVEL
M400 ;complete everything before
G0 X5 Y5 F6000
;My custom gcode
M420 S1 ;ENABLE BED LEVELING
G1 Z1 ; lift head
G1 Y5 F600
G1 Y10 F600
G1 Y60 F600.0 ; intro line
G1 Y93.3333 F600.0 ; intro line
M420 S1 ;ENABLE BED LEVELING

;end Start G-code repeat
G21 ; set units to millimeters
G90 ; use absolute coordinates
M83 ; use relative distances for extrusion
M900 K45 ; Filament gcode
;BEFORE_LAYER_CHANGE
G1 E-1.00000 F2100.00000
M73 P0 R65
G1 Z0.600 F15000.000
;AFTER_LAYER_CHANGE
;0.4
M420 S1 ;ENABLE BED LEVELING
; printing object (Quantity 1) NIH Prusa RC3 Remix.stl id:0 copy 0
G1 X182.818 Y98.547
G1 Z0.400
G1 E1.00000 F2100.00000
M204 S1000
G1 F1200.000
G1 X182.685 Y98.325 E0.04371
G1 X181.746 Y95.780 E0.45742
G1 X180.962 Y93.817 E0.35652
G1 X180.126 Y91.862 E0.35871
G1 X179.241 Y89.924 E0.35933
G1 X178.233 Y87.854 E0.38826
G1 X177.179 Y85.826 E0.38545
G1 X176.084 Y83.851 E0.38081
G1 X174.964 Y81.957 E0.37120
G1 X174.070 Y80.525 E0.28465
G1 X173.191 Y79.183 E0.27058
G1 X172.278 Y77.854 E0.27183
G1 X171.372 Y76.595 E0.26178
G1 X169.995 Y74.787 E0.38321
G1 X168.620 Y73.096 E0.36758
G1 X167.720 Y72.047 E0.23317
G1 X166.815 Y71.033 E0.22915
G1 X165.908 Y70.057 E0.22468
G1 X164.064 Y68.181 E0.44364
G1 X163.148 Y67.301 E0.21431
G1 X161.306 Y65.620 E0.42054
G1 X160.249 Y64.705 E0.23584
G1 X159.197 Y63.830 E0.23080
G1 X157.057 Y62.144 E0.45945
G1 X154.885 Y60.551 E0.45423
G1 X152.686 Y59.048 E0.44930
G1 X151.207 Y58.094 E0.29673
G1 X149.722 Y57.178 E0.29427
G1 X148.234 Y56.302 E0.29137
G1 X146.744 Y55.463 E0.28829
G1 X145.256 Y54.661 E0.28501
G1 X143.773 Y53.897 E0.28150
G1 X142.295 Y53.169 E0.27778
G1 X140.827 Y52.477 E0.27374
G1 X139.073 Y51.691 E0.32415
G1 X137.340 Y50.956 E0.31747
G1 X135.592 Y50.254 E0.31768
G1 X133.797 Y49.574 E0.32384
G1 X131.954 Y48.918 E0.32982
G1 X130.098 Y48.298 E0.33007
G1 X128.134 Y47.687 E0.34695
G1 X126.157 Y47.116 E0.34696
G1 X124.394 Y46.645 E0.30788
G1 X122.598 Y46.200 E0.31204
G1 X120.801 Y45.792 E0.31072
G1 X118.912 Y45.399 E0.32543
G1 X117.055 Y45.051 E0.31860
G1 X115.106 Y44.725 E0.33334
G1 X113.160 Y44.440 E0.33181
G1 X111.184 Y44.191 E0.33576
G1 X109.426 Y44.004 E0.29818
G1 X107.647 Y43.847 E0.30124
G1 X105.847 Y43.722 E0.30425
G1 X104.028 Y43.629 E0.30729
G1 X102.190 Y43.570 E0.31008
G1 X100.350 Y43.546 E0.31035
G1 X98.512 Y43.557 E0.31003
G1 X96.676 Y43.603 E0.30971
G1 X94.747 Y43.688 E0.32565
G1 X92.822 Y43.812 E0.32537
G1 X90.901 Y43.973 E0.32515
G1 X88.984 Y44.173 E0.32497
G1 X87.073 Y44.410 E0.32481
G1 X85.168 Y44.684 E0.32469
G1 X83.269 Y44.996 E0.32459
G1 X81.376 Y45.345 E0.32450
G1 X79.398 Y45.751 E0.34056
G1 X77.429 Y46.197 E0.34052
G1 X75.503 Y46.675 E0.33481
G1 X73.520 Y47.210 E0.34633
G1 X71.586 Y47.775 E0.33985
G1 X69.672 Y48.377 E0.33830
G1 X67.780 Y49.014 E0.33668
G1 X65.911 Y49.686 E0.33502
G1 X64.210 Y50.336 E0.30717
G1 X62.529 Y51.015 E0.30565
G1 X60.871 Y51.721 E0.30404
G1 X59.262 Y52.442 E0.29729
G1 X57.623 Y53.215 E0.30571
G1 X56.035 Y54.001 E0.29881
G1 X54.472 Y54.812 E0.29697
G1 X52.935 Y55.647 E0.29510
G1 X51.595 Y56.408 E0.25982
G1 X50.277 Y57.187 E0.25827
G1 X48.980 Y57.984 E0.25663
G1 X47.707 Y58.799 E0.25496
G1 X46.457 Y59.630 E0.25324
G1 X45.230 Y60.479 E0.25149
G1 X44.028 Y61.343 E0.24970
G1 X42.851 Y62.223 E0.24788
G1 X41.698 Y63.120 E0.24644
G1 X40.582 Y64.021 E0.24183
G1 X39.506 Y64.925 E0.23711
G1 X38.467 Y65.832 E0.23254
G1 X37.464 Y66.740 E0.22811
G1 X36.500 Y67.647 E0.22339
G1 X34.668 Y69.469 E0.43565
G1 X32.978 Y71.276 E0.41722
G1 X32.184 Y72.172 E0.20206
G1 X30.688 Y73.950 E0.39181
G1 X29.978 Y74.837 E0.19168
G1 X28.645 Y76.589 E0.37132
G1 X27.345 Y78.413 E0.37773
G1 X26.670 Y79.411 E0.20328
G1 X25.997 Y80.440 E0.20737
G1 X24.725 Y82.492 E0.40702
G1 X23.524 Y84.566 E0.40421
G1 X22.392 Y86.661 E0.40174
G1 X21.402 Y88.612 E0.36895
G1 X20.462 Y90.585 E0.36846
G1 X19.571 Y92.582 E0.36889
G1 X18.730 Y94.598 E0.36834
G1 X18.046 Y96.355 E0.31810
G1 X17.321 Y98.334 E0.35536
G1 X17.197 Y98.541 E0.04070
G1 X17.025 Y98.742 E0.04471
G1 X16.840 Y98.897 E0.04075
G1 X16.622 Y99.025 E0.04259
G1 X16.383 Y99.117 E0.04321
G1 X16.121 Y99.167 E0.04496
G1 X15.880 Y99.173 E0.04067
G1 X15.630 Y99.138 E0.04267
G1 X15.385 Y99.060 E0.04329
G1 X15.150 Y98.936 E0.04487
G1 X14.958 Y98.790 E0.04059
G1 X14.784 Y98.606 E0.04276
G1 X14.642 Y98.395 E0.04289
G1 X14.538 Y98.163 E0.04288
G1 X14.475 Y97.916 E0.04288
G1 X14.456 Y97.686 E0.03897
G1 X14.456 Y89.986 E1.29864
G1 X14.504 Y87.102 E0.48653
G1 X14.655 Y84.169 E0.49527
G1 X14.894 Y81.337 E0.47928
G1 X15.235 Y78.468 E0.48731
G1 X15.681 Y75.566 E0.49527
G1 X16.206 Y72.773 E0.47928
G1 X16.835 Y69.953 E0.48731
G1 X17.573 Y67.110 E0.49527
G1 X18.377 Y64.385 E0.47929
G1 X19.289 Y61.643 E0.48731
G1 X20.310 Y58.890 E0.49527
G1 X21.386 Y56.260 E0.47929
G1 X22.570 Y53.624 E0.48731
G1 X23.864 Y50.988 E0.49527
G1 X25.201 Y48.480 E0.47929
G1 X26.646 Y45.978 E0.48731
G1 X28.200 Y43.486 E0.49527
G1 X29.784 Y41.127 E0.47929
G1 X31.474 Y38.783 E0.48730
G1 X33.272 Y36.462 E0.49528
G1 X35.087 Y34.274 E0.47929
G1 X37.005 Y32.114 E0.48730
G1 X39.029 Y29.986 E0.49528
G1 X41.055 Y27.994 E0.47929
G1 X43.182 Y26.038 E0.48730
G1 X45.411 Y24.126 E0.49528
G1 X47.629 Y22.349 E0.47929
G1 X49.943 Y20.619 E0.48730
G1 X52.353 Y18.941 E0.49528
G1 X54.739 Y17.398 E0.47929
G1 X57.216 Y15.911 E0.48730
G1 X59.784 Y14.486 E0.49528
G1 X62.314 Y13.191 E0.47929
G1 X64.929 Y11.962 E0.48730
G1 X67.628 Y10.805 E0.49528
G1 X70.276 Y9.773 E0.47929
G1 X73.002 Y8.815 E0.48729
G1 X75.804 Y7.936 E0.49528
G1 X78.542 Y7.177 E0.47929
G1 X81.351 Y6.500 E0.48729
G1 X84.228 Y5.909 E0.49528
G1 X87.029 Y5.431 E0.47929
G1 X89.892 Y5.041 E0.48728
G1 X92.766 Y4.748 E0.48729
G1 X95.649 Y4.552 E0.48730
G1 X98.584 Y4.453 E0.49529
G1 X101.473 Y4.454 E0.48730
G1 X104.313 Y4.550 E0.47929
G1 X107.243 Y4.748 E0.49530
G1 X110.118 Y5.041 E0.48730
G1 X112.934 Y5.424 E0.47929
G1 X115.829 Y5.917 E0.49529
G1 X118.659 Y6.499 E0.48730
G1 X121.422 Y7.165 E0.47929
G1 X124.252 Y7.949 E0.49529
G1 X127.008 Y8.814 E0.48731
G1 X129.734 Y9.772 E0.48729
G1 X132.426 Y10.822 E0.48729
G1 X135.038 Y11.943 E0.47929
G1 X137.696 Y13.191 E0.49529
G1 X140.268 Y14.507 E0.48731
G1 X142.794 Y15.910 E0.48730
G1 X145.271 Y17.397 E0.48729
G1 X147.657 Y18.941 E0.47929
G1 X150.068 Y20.618 E0.49529
G1 X152.382 Y22.348 E0.48730
G1 X154.599 Y24.125 E0.47929
G1 X156.828 Y26.038 E0.49529
G1 X158.955 Y27.993 E0.48731
G1 X160.982 Y29.985 E0.47929
G1 X163.006 Y32.113 E0.49529
G1 X164.924 Y34.274 E0.48731
G1 X166.738 Y36.461 E0.47929
G1 X168.537 Y38.783 E0.49529
G1 X170.227 Y41.126 E0.48731
G1 X171.811 Y43.486 E0.47929
G1 X173.365 Y45.977 E0.49528
G1 X174.810 Y48.480 E0.48731
G1 X176.147 Y50.987 E0.47929
G1 X177.441 Y53.623 E0.49528
G1 X178.625 Y56.259 E0.48731
G1 X179.701 Y58.889 E0.47929
G1 X180.722 Y61.643 E0.49528
G1 X181.634 Y64.385 E0.48732
G1 X182.438 Y67.110 E0.47928
G1 X183.176 Y69.953 E0.49528
G1 X183.805 Y72.773 E0.48732
G1 X184.330 Y75.566 E0.47928
G1 X184.776 Y78.468 E0.49528
G1 X185.117 Y81.337 E0.48732
G1 X185.357 Y84.169 E0.47928
G1 X185.507 Y87.102 E0.49528
G1 X185.556 Y89.986 E0.48654
G1 X185.556 Y97.687 E1.29877
G1 X185.535 Y97.922 E0.03982
G1 X185.470 Y98.168 E0.04295
G1 X185.366 Y98.399 E0.04261
G1 X185.233 Y98.598 E0.04044
G1 X185.060 Y98.784 E0.04289
G1 X184.847 Y98.945 E0.04498
G1 X184.633 Y99.056 E0.04069
G1 X184.393 Y99.135 E0.04266
G1 X184.139 Y99.173 E0.04327
G1 X183.873 Y99.165 E0.04489
G1 X183.636 Y99.119 E0.04062
G1 X183.399 Y99.031 E0.04274
G1 X183.177 Y98.902 E0.04335
G1 X182.974 Y98.730 E0.04480
G1 X182.896 Y98.638 E0.02031
G1 X182.560 Y98.573 F15000.000
G1 F12000.000
G1 X182.685 Y98.325 E-0.06284
G1 X181.746 Y95.780 E-0.45090
G1 X180.962 Y93.817 E-0.35144
G1 X180.761 Y93.348 E-0.08482
G1 E-0.05000 F2100.00000
G1 Z1.000 F15000.000
G1 X43.274 Y23.287
G1 Z0.400
G1 E1.00000 F2100.00000
G1 F1200.000
G1 X41.835 Y24.521 E0.31978
G1 X39.657 Y26.523 E0.49890
G1 X37.583 Y28.564 E0.49077
G1 X35.511 Y30.741 E0.50686
G1 X33.547 Y32.953 E0.49891
G1 X31.942 Y34.888 E0.42397
G1 X31.871 Y34.784 E0.02129
G1 X31.446 Y34.344 E0.10318
G1 X30.955 Y33.985 E0.10255
G1 X30.814 Y33.915 E0.02654
G1 X31.648 Y33.067 E0.20056
G1 X33.837 Y30.978 E0.51029
G1 X36.129 Y28.925 E0.51902
G1 X38.405 Y27.009 E0.50169
G1 X40.779 Y25.133 E0.51040
G1 X43.176 Y23.356 E0.50319
G1 F12000.000
G1 X41.835 Y24.521 E-0.29536
G1 X39.657 Y26.523 E-0.49178
G1 X38.959 Y27.210 E-0.16285
G1 E-0.05000 F2100.00000
G1 Z1.000 F15000.000
G1 X28.817 Y34.497
G1 Z0.400
G1 E1.00000 F2100.00000
G1 F1200.000
G1 X30.937 Y32.344 E0.50950
G1 X33.149 Y30.234 E0.51563
G1 X35.464 Y28.159 E0.52436
G1 X37.764 Y26.223 E0.50698
G1 X40.163 Y24.327 E0.51570
G1 X42.619 Y22.507 E0.51566
G1 X45.131 Y20.764 E0.51567
G1 X47.696 Y19.099 E0.51563
G1 X50.355 Y17.489 E0.52436
G1 X52.974 Y16.013 E0.50698
G1 X55.683 Y14.595 E0.51566
G1 X58.481 Y13.239 E0.52436
G1 X61.225 Y12.013 E0.50698
G1 X64.054 Y10.852 E0.51570
G1 X66.919 Y9.780 E0.51590
G1 X70.568 Y8.534 E0.65035
G1 X70.568 Y8.511 E0.00399
G1 X71.706 Y8.195 E0.19912
G1 X69.923 Y8.822 E0.31865
G1 X67.244 Y9.866 E0.48504
G1 X64.513 Y11.037 E0.50108
G1 X61.867 Y12.281 E0.49308
G1 X59.307 Y13.591 E0.48504
G1 X56.709 Y15.032 E0.50107
G1 X54.203 Y16.537 E0.49309
G1 X51.788 Y18.099 E0.48504
G1 X49.349 Y19.796 E0.50107
G1 X47.008 Y21.547 E0.49309
G1 X44.764 Y23.345 E0.48503
G1 X42.509 Y25.280 E0.50107
G1 X40.356 Y27.258 E0.49310
G1 X38.306 Y29.275 E0.48503
G1 X36.258 Y31.428 E0.50107
G1 X34.317 Y33.614 E0.49311
G1 X32.481 Y35.827 E0.48503
G1 X31.649 Y36.901 E0.22916
G1 X31.625 Y36.632 E0.04555
G1 X31.515 Y36.195 E0.07607
G1 X31.329 Y35.789 E0.07529
G1 X31.082 Y35.427 E0.07397
G1 X30.777 Y35.111 E0.07397
G1 X30.425 Y34.854 E0.07359
G1 X30.049 Y34.666 E0.07089
G1 X29.617 Y34.532 E0.07632
G1 X29.175 Y34.479 E0.07508
G1 X28.937 Y34.491 E0.04010
G1 F12000.000
G1 X30.937 Y32.344 E-0.48772
G1 X32.949 Y30.425 E-0.46228
G1 E-0.05000 F2100.00000
G1 Z1.000 F15000.000
G1 X156.790 Y23.332
G1 Z0.400
G1 E1.00000 F2100.00000
G1 F1200.000
G1 X159.226 Y25.137 E0.51135
G1 X161.599 Y27.013 E0.51028
G1 X163.875 Y28.928 E0.50162
G1 X166.166 Y30.982 E0.51895
G1 X168.355 Y33.071 E0.51022
G1 X169.196 Y33.925 E0.20225
G1 X168.625 Y34.314 E0.11657
G1 X168.191 Y34.747 E0.10342
G1 X168.081 Y34.902 E0.03209
G1 X166.463 Y32.952 E0.42727
G1 X164.499 Y30.741 E0.49892
G1 X162.428 Y28.563 E0.50687
G1 X160.353 Y26.523 E0.49077
G1 X158.175 Y24.521 E0.49891
G1 X156.881 Y23.410 E0.28768
G1 F12000.000
G1 X159.226 Y25.137 E-0.48416
G1 X161.424 Y26.874 E-0.46584
G1 E-0.05000 F2100.00000
G1 Z1.000 F15000.000
G1 X168.370 Y36.912
G1 Z0.400
G1 E1.00000 F2100.00000
G1 F1200.000
G1 X167.530 Y35.827 E0.23149
G1 X165.694 Y33.613 E0.48503
G1 X163.752 Y31.427 E0.49311
G1 X161.705 Y29.274 E0.50108
G1 X159.654 Y27.258 E0.48503
G1 X157.502 Y25.279 E0.49311
G1 X155.247 Y23.345 E0.50108
G1 X153.003 Y21.546 E0.48503
G1 X150.661 Y19.795 E0.49310
G1 X148.222 Y18.099 E0.50108
G1 X145.808 Y16.536 E0.48504
G1 X143.301 Y15.032 E0.49305
G1 X140.745 Y13.612 E0.49307
G1 X138.143 Y12.280 E0.49312
G1 X135.453 Y11.017 E0.50108
G1 X132.810 Y9.883 E0.48504
G1 X130.087 Y8.821 E0.49305
G1 X128.350 Y8.211 E0.31040
G1 X129.444 Y8.514 E0.19141
G1 X129.444 Y8.538 E0.00401
G1 X133.091 Y9.783 E0.64998
G1 X135.907 Y10.837 E0.50714
G1 X138.784 Y12.017 E0.52429
G1 X141.574 Y13.264 E0.51556
G1 X144.325 Y14.598 E0.51563
G1 X146.988 Y15.993 E0.50691
G1 X149.696 Y17.519 E0.52429
G1 X152.310 Y19.103 E0.51556
G1 X154.875 Y20.768 E0.51563
G1 X157.344 Y22.481 E0.50691
G1 X159.842 Y24.331 E0.52429
G1 X162.241 Y26.227 E0.51559
G1 X164.540 Y28.163 E0.50691
G1 X166.855 Y30.237 E0.52429
G1 X169.066 Y32.348 E0.51556
G1 X171.191 Y34.505 E0.51060
G1 X170.898 Y34.485 E0.04941
G1 X170.462 Y34.531 E0.07396
G1 X170.057 Y34.644 E0.07100
G1 X169.646 Y34.835 E0.07644
G1 X169.280 Y35.092 E0.07544
G1 X168.969 Y35.403 E0.07421
G1 X168.715 Y35.762 E0.07420
G1 X168.525 Y36.160 E0.07422
G1 X168.407 Y36.580 E0.07366
G1 X168.383 Y36.792 E0.03603
G1 F12000.000
G1 X167.530 Y35.827 E-0.21428
G1 X165.694 Y33.613 E-0.47811
G1 X164.665 Y32.454 E-0.25761
G1 E-0.05000 F2100.00000
G1 Z1.000 F15000.000
G1 X184.766 Y101.130
G1 Z0.400
G1 E1.00000 F2100.00000
G1 F1200.000
G1 X184.927 Y101.094 E0.02783
G1 X184.927 Y101.679 E0.09870
G1 X184.800 Y101.245 E0.07632
G1 F12000.000
G1 X184.927 Y101.094 E-0.03284
G1 X184.927 Y101.679 E-0.09730
G1 X184.800 Y101.245 E-0.07523
G1 E-0.79464 F2100.00000
G1 Z1.000 F15000.000
G1 X183.386 Y100.104
G1 Z0.400
G1 E1.00000 F2100.00000
G1 F1200.000
G1 X183.761 Y100.176 E0.06434
G1 X184.200 Y100.189 E0.07401
G1 X184.627 Y100.125 E0.07283
G1 X185.027 Y99.994 E0.07110
G1 X185.390 Y99.806 E0.06899
G1 X185.742 Y99.540 E0.07426
G1 X185.941 Y99.326 E0.04942
G1 X185.941 Y111.098 E1.98542
G1 X185.705 Y109.565 E0.26163
G1 X185.458 Y108.188 E0.23589
G1 X185.182 Y106.822 E0.23511
G1 X184.865 Y105.410 E0.24395
G1 X184.512 Y103.981 E0.24842
G1 X184.120 Y102.532 E0.25313
G1 X183.423 Y100.218 E0.40753
G1 F12000.000
G1 X183.761 Y100.176 E-0.05667
G1 X184.200 Y100.189 E-0.07295
G1 X184.627 Y100.125 E-0.07179
G1 X185.027 Y99.994 E-0.07009
G1 X185.390 Y99.806 E-0.06800
G1 X185.742 Y99.540 E-0.07320
G1 X185.941 Y99.326 E-0.04872
G1 X185.941 Y102.265 E-0.48858
G1 E-0.05000 F2100.00000
G1 Z1.000 F15000.000
G1 X192.165 Y130.630
G1 Z0.400
G1 E1.00000 F2100.00000
G1 F1200.000
G1 X192.165 Y135.352 E0.79643
G1 X191.809 Y135.056 E0.07794
G1 X191.207 Y134.688 E0.11910
G1 X190.557 Y134.412 E0.11912
G1 X189.873 Y134.234 E0.11912
G1 X189.171 Y134.156 E0.11911
G1 X188.465 Y134.182 E0.11912
G1 X187.771 Y134.310 E0.11912
G1 X187.584 Y134.374 E0.03333
G1 X187.584 Y131.607 E0.46664
G1 X187.771 Y131.671 E0.03334
G1 X188.465 Y131.800 E0.11910
G1 X189.171 Y131.825 E0.11911
G1 X189.873 Y131.748 E0.11912
G1 X190.557 Y131.569 E0.11912
G1 X191.207 Y131.293 E0.11913
G1 X191.809 Y130.925 E0.11911
G1 X192.072 Y130.706 E0.05769
G1 F12000.000
G1 X192.165 Y135.352 E-0.77246
G1 X191.809 Y135.056 E-0.07682
G1 X191.292 Y134.741 E-0.10071
G1 E-0.05000 F2100.00000
G1 Z1.000 F15000.000
G1 X186.570 Y129.951
G1 Z0.400
G1 E1.00000 F2100.00000
G1 F1200.000
G1 X187.017 Y130.259 E0.09152
G1 X187.500 Y130.507 E0.09171
G1 X188.028 Y130.687 E0.09408
G1 X188.577 Y130.789 E0.09407
G1 X189.134 Y130.809 E0.09408
G1 X189.689 Y130.748 E0.09408
G1 X190.228 Y130.607 E0.09408
G1 X190.742 Y130.389 E0.09408
G1 X191.218 Y130.098 E0.09407
G1 X191.646 Y129.742 E0.09407
G1 X192.019 Y129.326 E0.09408
G1 X192.327 Y128.861 E0.09408
G1 X192.563 Y128.356 E0.09407
G1 X192.732 Y127.794 E0.09893
G1 X192.811 Y127.077 E0.12172
G1 X192.811 Y124.327 E0.46371
G1 X192.836 Y124.183 E0.02467
G1 X192.911 Y124.095 E0.01947
G1 X193.024 Y124.075 E0.01946
G1 X193.124 Y124.132 E0.01947
G1 X193.154 Y124.183 E0.00988
G1 X193.179 Y124.332 E0.02553
G1 X193.179 Y141.649 E2.92058
G1 X193.154 Y141.799 E0.02553
G1 X193.079 Y141.887 E0.01947
G1 X192.966 Y141.907 E0.01947
G1 X192.887 Y141.870 E0.01473
G1 X192.836 Y141.799 E0.01473
G1 X192.811 Y141.648 E0.02581
G1 X192.805 Y138.710 E0.49538
G1 X192.724 Y138.160 E0.09381
G1 X192.563 Y137.626 E0.09408
G1 X192.327 Y137.121 E0.09408
G1 X192.019 Y136.656 E0.09408
G1 X191.647 Y136.240 E0.09408
G1 X191.218 Y135.883 E0.09408
